assets/symbols/mulberry/plug_2.svg

<svg height="850.394" viewBox="0 0 850.394 850.394" width="850.394" xmlns="http://www.w3.org/2000/svg"><path d="m648.36 396.82v53.42c-55.67 8.75-97.19 30.75-126.801 53.67l-1.76-2.54v-158.34l.07-.09c30.071 22.71 72.251 44.82 128.491 53.88zm33.42-.77h100.229v58.11h-100.229zm-5.82-15.98v92.97c0 6.42-5.2 11.63-11.62 11.63h-4.359c-6.41 0-11.62-5.21-11.62-11.63v-21.37l2.909-1.87c-.97.141-1.939.29-2.909.44v-53.42c1.439.24 2.899.46 4.359.68l-4.359-2.69v-14.74c0-6.42 5.21-11.62 11.62-11.62h4.359c6.42 0 11.62 5.2 11.62 11.62z" fill="#7a7878"/><path d="m648.36 394.81 4.359 2.69c-1.46-.22-2.92-.44-4.359-.68zm2.91 54.99-2.909 1.87v-1.43c.969-.15 1.939-.3 2.909-.44z" fill="#fff"/><path d="m519.8 501.37 1.76 2.54a260.15 260.15 0 0 0 -30.159 27.37l-2.83-1.58v-213.55l.43-.42c8.37 8.6 18.61 17.95 30.87 27.21l-.07.09v158.34z" fill="#7a7878"/><path d="m488.57 529.7 2.83 1.58c-21.131 22.45-30.431 40.55-30.431 40.55h-.969v-292.61c2.14 3.59 11.4 18.39 29 36.51l-.43.42zm-28.57 42.13v12.11c0 5.88-3.99 10.649-8.91 10.649h-109.06c-4.92 0-8.9-4.77-8.9-10.649v-45.09l2.72-39.939c-.89-.13-1.8-.19-2.72-.2v-177.721l1.07-15.77c-.35-.05-.71-.09-1.07-.12v-42.41c0-5.88 3.98-10.65 8.9-10.65h109.06c4.92 0 8.91 4.77 8.91 10.65v15.99l-.49-.3s.16.29.49.84z" fill="#7a7878"/><path d="m460 278.68v.54c-.33-.55-.49-.84-.49-.84zm-124.15 220.23-2.72 39.939v-40.14c.92.011 1.83.071 2.72.201zm-1.65-193.69-1.07 15.77v-15.89c.36.03.72.07 1.07.12z" fill="#fff"/><path d="m333.13 498.71v40.14l-.3 4.4h-150.83v-44.54zm0-193.61v15.89l-1.94 28.58h-149.19v-44.55h149.19c.65 0 1.3.03 1.94.08z" fill="#231f20"/><path d="m182 538v5.25h-89.35c-12.3 0-22.27-9.97-22.27-22.27 0-6.15 2.49-11.721 6.52-15.75 4.03-4.03 9.6-6.521 15.75-6.521h89.35zm0-194v5.57h-90.98c-12.31 0-22.28-9.97-22.28-22.28 0-6.15 2.49-11.72 6.52-15.75 4.04-4.03 9.6-6.52 15.76-6.52h90.98z" fill="#c8c8c8"/><g fill="none"><g stroke="#231f20" stroke-width="21"><path d="m331.19 349.57h-240.17c-12.31 0-22.28-9.97-22.28-22.28 0-6.15 2.49-11.72 6.52-15.75 4.04-4.03 9.6-6.52 15.76-6.52h240.17c.65 0 1.3.03 1.94.08m-151.13 4.9v34m150.83 199.25h-240.18c-12.3 0-22.27-9.97-22.27-22.27 0-6.15 2.49-11.721 6.52-15.75 4.03-4.03 9.6-6.521 15.75-6.521h240.48m-151.13 3.291v36m278-258.78v304.72c0 5.88-3.99 10.649-8.91 10.649h-109.06c-4.92 0-8.9-4.77-8.9-10.649v-321.25c0-5.88 3.98-10.65 8.9-10.65h109.06c4.92 0 8.91 4.77 8.91 10.65v15.99"/><path d="m459.51 278.38s.16.29.49.84c2.14 3.59 11.4 18.39 29 36.51 8.37 8.6 18.61 17.95 30.87 27.21 30.07 22.71 72.25 44.82 128.49 53.88m-187.39 175.01s9.3-18.1 30.431-40.55a260.15 260.15 0 0 1 30.159-27.37c29.61-22.92 71.131-44.92 126.801-53.67"/><path d="m648.36 394.81v-14.74c0-6.42 5.21-11.62 11.62-11.62h4.359c6.42 0 11.62 5.2 11.62 11.62v92.97c0 6.42-5.2 11.63-11.62 11.63h-4.359c-6.41 0-11.62-5.21-11.62-11.63zm33.42 1.24h100.229v58.11h-100.229zm-193.21-79.9v213.55m31.23-186.67v158.34"/></g><path d="m0 0h850.394v850.394h-850.394z"/><path d="m586 380v84m-32-96v108" stroke="#231f20" stroke-width="21"/></g></svg>

<svg xmlns="http://www.w3.org/2000/svg" width="850.394" height="850.394" viewBox="0 0 850.394 850.394" overflow="visible"><path d="M648.36 396.82v53.42c-55.67 8.75-97.19 30.75-126.801 53.67l-1.76-2.54V343.03l.07-.09c30.071 22.71 72.251 44.82 128.491 53.88zM681.78 396.05h100.229v58.11H681.78zM675.96 380.07v92.97c0 6.42-5.2 11.63-11.62 11.63h-4.359c-6.41 0-11.62-5.21-11.62-11.63v-21.37l2.909-1.87c-.97.141-1.939.29-2.909.44v-53.42c1.439.24 2.899.46 4.359.68l-4.359-2.69v-14.74c0-6.42 5.21-11.62 11.62-11.62h4.359c6.42 0 11.62 5.2 11.62 11.62z" fill="#7a7878"/><path d="M648.36 394.81l4.359 2.69c-1.46-.22-2.92-.44-4.359-.68v-2.01zM651.27 449.8l-2.909 1.87v-1.43c.969-.15 1.939-.3 2.909-.44z" fill="#fff"/><path d="M519.8 501.37l1.76 2.54a260.15 260.15 0 0 0-30.159 27.37l-2.83-1.58V316.15l.43-.42c8.37 8.6 18.61 17.95 30.87 27.21l-.07.09v158.34z" fill="#7a7878"/><path d="M488.57 529.7l2.83 1.58c-21.131 22.45-30.431 40.55-30.431 40.55H460V279.22c2.14 3.59 11.4 18.39 29 36.51l-.43.42V529.7zM460 571.83v12.11c0 5.88-3.99 10.649-8.91 10.649H342.03c-4.92 0-8.9-4.77-8.9-10.649v-45.09l2.72-39.939c-.89-.13-1.8-.19-2.72-.2V320.99l1.07-15.77c-.35-.05-.71-.09-1.07-.12v-42.41c0-5.88 3.98-10.65 8.9-10.65h109.06c4.92 0 8.91 4.77 8.91 10.65v15.99l-.49-.3s.16.29.49.84v292.61z" fill="#7a7878"/><path d="M460 278.68v.54c-.33-.55-.49-.84-.49-.84l.49.3zM335.85 498.91l-2.72 39.939v-40.14c.92.011 1.83.071 2.72.201zM334.2 305.22l-1.07 15.77V305.1c.36.03.72.07 1.07.12z" fill="#fff"/><path d="M333.13 498.71v40.14l-.3 4.4H182v-44.54H333.13zM333.13 305.1v15.89l-1.94 28.58H182v-44.55h149.19c.65 0 1.3.03 1.94.08z" fill="#231f20"/><path d="M182 538v5.25H92.65c-12.3 0-22.27-9.97-22.27-22.27 0-6.15 2.49-11.721 6.52-15.75 4.03-4.03 9.6-6.521 15.75-6.521H182V538zM182 344v5.57H91.02c-12.31 0-22.28-9.97-22.28-22.28 0-6.15 2.49-11.72 6.52-15.75 4.04-4.03 9.6-6.52 15.76-6.52H182V344z" fill="#c8c8c8"/><g fill="none" stroke="#231f20" stroke-width="21"><path d="M331.19 349.57H91.02c-12.31 0-22.28-9.97-22.28-22.28 0-6.15 2.49-11.72 6.52-15.75 4.04-4.03 9.6-6.52 15.76-6.52H331.19c.65 0 1.3.03 1.94.08M182 310v34M332.83 543.25H92.65c-12.3 0-22.27-9.97-22.27-22.27 0-6.15 2.49-11.721 6.52-15.75 4.03-4.03 9.6-6.521 15.75-6.521H333.13M182 502v36M460 279.22v304.72c0 5.88-3.99 10.649-8.91 10.649H342.03c-4.92 0-8.9-4.77-8.9-10.649V262.69c0-5.88 3.98-10.65 8.9-10.65h109.06c4.92 0 8.91 4.77 8.91 10.65v15.99"/><path d="M459.51 278.38s.16.29.49.84c2.14 3.59 11.4 18.39 29 36.51 8.37 8.6 18.61 17.95 30.87 27.21 30.07 22.71 72.25 44.82 128.49 53.88M460.97 571.83s9.3-18.1 30.431-40.55a260.15 260.15 0 0 1 30.159-27.37c29.61-22.92 71.131-44.92 126.801-53.67"/><path d="M648.36 394.81v-14.74c0-6.42 5.21-11.62 11.62-11.62h4.359c6.42 0 11.62 5.2 11.62 11.62v92.97c0 6.42-5.2 11.63-11.62 11.63h-4.359c-6.41 0-11.62-5.21-11.62-11.63v-78.23zM681.78 396.05h100.229v58.11H681.78zM488.57 316.15V529.7M519.8 343.03v158.34"/></g><path fill="none" d="M0 0h850.394v850.394H0z"/><path fill="none" stroke="#231f20" stroke-width="21" d="M586 380v84M554 368v108"/></svg>
